X:7
T:Glen Grant
R:Strathspey
A:Cape Breton
S:Sandy MacIntyre
N:From the playing of Sandy MacIntyre
Z:Transcribed Nov 20 1998 by Wil Macaulay
M:C
L:1/8
K:A
A,<A, A>E F>E C<E | E<A B>c d/c/B/A/ G/F/E/D/ |
C<E A>E F>E C<E |1 B,<B, A,>E (A2A2) :|2  B,<B, A,>E (A2A) ||
f | e>Ac>A d/c/B/A/ A<f | e>Ac>A (e/f/g) a>f |  e>Ac>A (3ABA F<A | E<C E>F A2 A>f |
 e>Ac>A d/c/B/A/ A<f | e>Ac>A (e/f/g) a>e | f<a c<e A<c F<A | E<C E>F A2 A2 ||

